X:1
T:- # -
%%score [ 1 2 3 4 ]
L:1/8
M:none
K:F
V:1 treble nm="Sopran" snm=" "
V:2 treble nm="Alt"
V:3 treble-8 nm="Tenor"
V:4 bass nm="Baß"
V:1
"^Christobal de Morales" F4 c4- | c2 c2 d2 d2 | e4 c4 | f3 e"^III.  In illo tempore modicum" d4 | %4
w: In il-|* lo tem- po-|re di-|xit * Ie-|
"^5" c2 c2 f2 f2 | d3 c B4 | A3 G/F/"^1546" E4 | z2 c2 f2 f2 | edcB A2 FG |"^10" AB c4 =B2 | c8 | %11
w: sus dis- ci- pu-|lis * su|\- * \- ~is,|dis- ci- pu-|lis * * * * su \-|* \- * *|~is,|
 z2 F2 B2 B2 | A2 F2 G4 | F2 A3 G G2- |"^15" GF F4 E2 | F8- | F8 | c6 c2 | d2 c2 A2 A2 | %19
w: dis- ci- pu-|\-lis su *|||~is:||Mo- di-|cum et non vi-|
"^20" B2 c2 d2 f2 | e2 d3 c c2- | c2 =B2 c4- | c4 A4- | A2 A2 B2 A2 |"^25" FGAB c2 A2 | %25
w: de- bi- tis *||* * me,|* ~mo-|* di- cum et|non * * * * vi-|
 B2 c2 d2 f2- | f2 e2 c2 d2- | dc c4 =B2 | c8- |"^30" c4 z4 | z4 z2 c2- | c2 B2 c2 A2 | B2 c2 F4 | %33
w: de- bi- tis *|||~me,||et|* i~~- te- rum|mo- di \-|
 G4 A4 |"^35" z2 c4 B2 | c2 A2 B2 c2 | F4 B4 | A3 G A2 G2- | GF F4 E2 |"^40" F3 G AB A2- | %40
w: \- cum,|et i~~-|te- rum mo- di-|\-cum et|vi \- de- bi|\- * \- tis|me, * * * *|
 AG c4 =B2 | c4 A4 | z2 c2 d4 | e2 c2 f4 |"^45" e2 f2 d4 | c8 | z2 F2 G4 | A2 F2 c4 | A2 B2 G4 | %49
w: ||qui- a|va- do ad|pa- trem me-|~um,|qui- a|va- do ad|pa \- *|
"^50" F2 A3 G G2- | GF F4 E2 | F8 | z8 | c4 d2 c2 |"^55" f4 e4 | c6 d2 | B2 c2 d4 | c2 f2 e2 d2- | %58
w: trem me \- *|\- * * \-|~um.||Di- xe- runt|er- go|ex dis-|ci- pu- lis|su \- * \-|
 dc c4 =B2 |"^60" c2 c4 d2 | B2 c2 d4 | c2 f2 e2 d2- | dc c4 B2 | c2 A2 B4 |"^65" A4 z4 | c4 B4 | %66
w: * \- * *|\-is, ex dis-|ci- pu- lis|su \- * \-|* \- * \-|\- * \-|~is:|Quid est|
 A2 d2 c2 A2 | c4 G2 E2 | F2 G2 A4 |"^70" c8 | B4 A2 d2 | c2 A2 c4 | G2 E2 F2 G2 | A4 z2 c2- | %74
w: hoc, quod di- xit|no \- *|\- * bis,|quid|est hoc, quod|di~- xit no-||~bis? Mo-|
"^75" c2 c2 d2 c2 | A3 B c2 A2 | B2 c2 d2 f2- | f2 e2 d2 c2- | c2 =B2 c4- |"^80" c4 A4- | %80
w: * di- cum et|non vi- de \-~|\- * \- bi|\- * * *|\- tis ~me,|* mo-|
 A2 A2 B2 A2 | FGAB c2 A2 | B2 c2 d2 f2- | f2 e2 c2 d2- |"^85" dc c4 =B2 | c8- | c4 z4 | %87
w: * di- cum et|non * * * * vi-|\-de- bi- tis *|||~me,||
 z4 z2 c2- | c2 B2 c2 A2 |"^90" B2 c2 F4 | G4 A4 | z2 c4 B2 | c2 A2 B2 c2 | F4 B4 | %94
w: et|* i- te- rum|mo- * di-|* cum,|et i~-|te- rum mo- di-|\-cum et|
"^95" A3 G A2 G2- | GF F4 E2 | F3 G AB A2- | AG c4 =B2 | c4 A4 |"^100" z2 c2 d4 | e2 c2 f4 | %101
w: vi \- de- bi|\- * \- tis|~me, * * * *|||qui- a|va- do ad|
 e2 f2 d4 | c8 | z2 F2 G4 |"^105" A2 F2 c4 | A2 B2 G4 | F2 A3 G G2- | GF F4 E2 | F8 | %109
w: pa- trem me-|~um,|qui- a|va- do ad|pa- trem me|\- * \- *|\- * * *|~um.|
"^Secunda pars" F4 c2 c2 | d4 c2 f2- | f2 e2 d3 c/B/ | A2 c4 =B2 | c8 |"^115" F4 c2 c2 | d4 c4- | %116
w: Di- ce- bant|er \- *|\- * \- * \-|* \- *|go,|di- ce- bant|er- go,|
 c4 z2 f2- | f2 e2 d2 c2- | c2 =B2 c4- |"^120" c4 z4 | z2 F2 G4 | A2 c4 B2 | c2 A2 B4 | %123
w: * di|\- ce- bant er|\- * ~go:||Quid est|hoc, quod di-|\-xit no *|
 A2 d3 c c2- |"^125" cB B3 A A2- | A2 G2 A2 F2 | G4 A2 c2- | c2 B2 c2 A2 | B4 A2 d2- | %129
w: |\- * * * \-|* \- bis, quid|est hoc, quod|* di- xit no|\- bis, quod|
"^130" dc c4 B2 | cBAG F2 G2- | GF F4 E2 | F4 z2 F2 | c6 c2 |"^135" d4 e2 e2 | c4 f4 | e2 c3 BAG | %137
w: * * di- xit|no \- * \- * \-|\- * * \-|~bis? Ne-|sci- mus,|quid lo- qui-|tur, quid|lo- qui \- * \-|
 A4 z2 F2 | c6 c2 |"^140" d4 e2 e2 | c4 f4 | e2 d3 c c2- | c2 =B2 c2 A2 | B2 c2 A4 | %144
w: \-tur, ne-|sci- mus,|quid lo- qui-|tur, ne-|sci \- * \-|* * mus, quid|lo- qui- ~~tur.|
"^145" z4 z2 c2- | c2 d2 e2 c2 | d2 e2 f4 | e2 c2 B2 c2 | A4 z4 |"^150" z2 c4 d2 | e2 c2 d2 e2 | %151
w: Cog-|* * no- vit|au- tem Ie-|\- * \- *|sus,|qui- a|vo- le- bant e-|
 f4 e2 c2 | d2 c4 =B2 | c3 B A2 B2 |"^155" A4 z4 | G4 A2 F2 | A4 G4 | z2 G2 A2 F2 | A4 G4 | %159
w: um in- ter-|\-ro- ga- *||~re,|et di- xit|e- ~is,|et di- xit|e \-|
"^160" F6 ED | E4 G4 | A2 F2 B4 | A2 A2 A2 F2 | B4 A4- |"^165" A4 z4 | B6 B2 | A2 A2 B2 B2 | %167
w: \- \- *|~is, et|di- xit e~-|is, et di- xit|e- is:|~|De hoc|quae- ri- tis in-|
 G4 F4- | F4 c4 |"^170" z2 B4 B2 | A2 A2 B2 B2 | G4 F4 | c6 B2 | A4 G4 |"^175" z2 f4 e2 | d4 c4 | %176
w: ter ~vos,||de hoc|quae- ri- tis in-|\-ter vos,|qui- a|di- ~xi,|qui- a|di- xi,|
 z2 c4 B2- | BA A4 G2 | A2 c4 c2 |"^180" d2 c2 A2 A2 | B2 c2 d2 f2 | e2 d3 c c2- | c2 =B2 c4- | %183
w: qui- a|* * di- *|xi: Mo- di-|cum et non vi-|de- bi- tis *||* * me,|
 c4 A4- |"^185" A2 A2 B2 A2 | FGAB c2 A2 | B2 c2 d2 f2- | f2 e2 c2 d2- | dc c4 =B2 |"^190" c8- | %190
w: * mo-|* di- cum et|non * * * * vi-|de- bi- tis *|||~me,|
 c4 z4 | z4 z2 c2- | c2 B2 c2 A2 | B2 c2 F4 |"^195" G4 A4 | z2 c4 B2 | c2 A2 B2 c2 | F4 B4 | %198
w: |et|* i~- te- rum|mo- di- ~cum||et i~-|te- rum mo- di-|cum et|
 A3 G A2 G2- | GF F4 E2 | F8 |] %201
w: vi \- de- bi|\- * \- tis|~me.|
V:2
 z8 | z8 | C4 F4- | F2 F2 G2 G2 | A4 F4 | B3 A G4 | F4 z2 G2 | c2 c2 A4 | G4 F2 c2- | cB A2 G3 F | %10
w: ||In il-|* lo tem- po-|re di-|xit * Ie-|sus dis-|\-ci- pu- lis|su \- *|* \- * * \-|
w: ||||||||||
 E4 A4 | F4 z2 D2 | F2 F2 E3 D | C2 D3 C C2- | C2 B,2 C4 | D8 | C8 | z8 | F6 F2 | G2 F2 D2 D2 | %20
w: * \-|~is, dis-|\-ci- pu- lis *|su * \- *|\- * \-|\-|~is:||~Mo- di-|cum et non vi-|
w: ||||||||||
 E2 F2 G2 E2 | D4 E2 F2- | F2 E2 F4- | F4 z2 F2- | F2 F2 G2 F2 | D2 E2 F2 F2 | G8 | A4 G3 F | %28
w: de- bi- tis *||* * ~~me,|* mo-|\- di- cum et|non vi- de- bi-|tis||
w: ||||||||
 E3 D C4- | C4 z4 | z2 F4 E2 | F2 D2 E2 F2 | D2 C2 D2 F2- | F2 E2 F4 | G4 F3 G | A4 G2 E2 | %36
w: * * ~me,||et i-|te- rum mo- di-|cum et vi- de|\- bi- tis|* me, *||
w: ||||||||
 z2 F4 E2 | F6 D2 | _EDCB, C4 | A,4 z2 C2- | C2 C2 D4 | C4 F4 | E2 F2 D4 | C2 c4 B2 | c2 A4 GF | %45
w: et vi-|de- bi-|tis * * * *|~me, qui|\- a va-|do ad|pa- trem me|\- * \-|* \- * \-|
w: |||||||||
 E2 F2 E2 C2- | C2 D2 E2 D2 | F2 D3 C C2- | C2 B,2 C4- | C2 C2 D2 B,2 | C2 D2 C4 | z2 C2 C2 C2 | %52
w: * * um, qui|\- a va- do|ad pa \-~ trem|* me- ~um,|* me- * *|* \- ~um.|Di- xe- runt|
w: |||||||
 F4 F4 | z4 F4 | F2 F2 G4 | A4 z2 G2- | G2 A2 F2 G2 | A4 G2 B2- | B2 A4 GF | E2 A2 G2 B2- | %60
w: er- go,|di-|\-xe- runt er-|go ex|* dis- ci- pu-|lis su \-|* \- * \-|\-is, ex dis- ci|
w: ||||||||
 B2 A4 GF | E2 A2 G2 B2- | B2 A4 GF | E2 F4 E2 | F4 z2 F2- | F2 E2 D2 G2 | F2 D2 F4 | C3 D E4 | %68
w: \- pu- lis, *|* ex dis- ci|\- pu- lis *|* su- *|~is: Quid|* est hoc, quod|di- xit no-|* * bis,|
w: ||||||||
 z4 F4- | F4 E4 | D2 G2 F2 D2 | F4 C3 D | E2 C2 D3 E | F8 | E4 z2 F2- | F2 F2 G2 F2 | D2 E2 F4 | %77
w: ~quid|* est|hoc, quod di- xit|no \- *|\- * * *|\--|~bis? ~Mo|\- di- cum et|non vi- de-|
w: |||||||||
 G4 F3 E | D4 E2 F2- | F2 E2 F4- | F4 z2 F2- | F2 F2 G2 F2 | D2 E2 F2 F2 | G8 | A4 G3 F | %85
w: bi- tis *||* * ~me,|* mo|\- di- cum et|non vi- de- bi-|tis||
w: ||||||||
 E3 D C4- | C4 z4 | z2 F4 E2 | F2 D2 E2 F2 | D2 C2 D2 F2- | F2 E2 F4 | G4 F3 G | A4 G2 E2 | %93
w: * * ~me,||et i-|\-te- rum mo- di-|cum et vi- de|\- bi- tis|* me *||
w: ||||||||
 z2 F4 E2 | F6 D2 | _EDCB, C4 | A,4 z2 C2- | C2 C2 D4 | C4 F4 | E2 F2 D4 | C2 c4 B2 | c2 A4 GF | %102
w: et vi-|de- bi-|tis * * * *|~me, qui|\- a va-|\-do ad|pa- trem me-|um, me \-|* * \- *|
w: |||||||||
 E2 F2 E2 C2- | C2 D2 E2 D2 | F2 D3 C C2- | C2 B,2 C4- | C2 C2 D2 B,2 | C2 D2 C4 | C8 | z4 C4 | %110
w: \- * um, me|\- * \- ~|\- * \- *|\- * ~um,|* ad pa- trem|me \- *|~um.|Di-|
w: ||||||||
 G2 G2 A4 | G8 | E2 F2 D4 | F4 E4 | z4 z2 C2 | G2 G2 A4 | G2 c4 B2 | c3 B A4 | G3 F E4 | z2 C2 D4 | %120
w: ce- bant er|\-|\- * *|\- go,|di-|ce- bant er-|\- * \-|* * \-|\- * ~go:|Quid est|
w: ||||||||||
 E2 F4 E2 | F2 E2 G4 | C2 D2 B,3 C | D2 B,2 A,4 | z4 z2 C2 | D4 E2 F2- | F2 E2 F2 E2 | G4 C2 D2 | %128
w: hoc, quod di-|xit no- bis,|quod * di- xit|no \- ~~bis,|quid|est hoc, quod|* di- xit no-|\-bis, quod *|
w: ||||||||
 B,3 C D2 B,2 | A,2 A2 G3 F | E2 F2 D2 C2- | C2 B,2 C4 | C8 | z2 C2 F4- | F2 F2 G2 A2- | %135
w: di- xit no *|\- * * \-|* \- * \-|\- ~xit no-|~bis?|Ne- sci-|\- mus, quid lo-|
w: |||||||
 A2 A2 F2 A2 | G3 F E2 A2- | AG F3 EFD | E2 C2 F4- | F2 F2 G4 | A2 A2 F4 | B4 A2 A2 | G6 A2 | %143
w: \- qui- tur, quid|lo \- * qui-|\- * \- \- * \-|tur, ne- sci-|* mus, quid|lo- qui- tur,|ne- sci- mus,|quid *|
w: ||||||||
 G2 E2 F4 | z2 F2 G4 | A2 F2 G2 A2 | B2 c2 F4 | G2 A2 G2 E2 | F4 z2 F2 | G4 A2 F2 | G2 A2 B2 c2 | %151
w: lo- qui- ~tur.|Cog- no-|vit au- tem Ie|\- * \-|\- * \- *|sus, qui-|a vo- le-|bant e \- \-|
w: ||||||||
 F4 G2 A2 | F2 E2 D4 | C2 E2 F2 D2 | F4 E4- | E2 E2 F2 C2 | F4 D2 G2 | G2 D2 F4- | F4 EDCB, | %159
w: um in- ter-|\-ro- ga- *|~re, et di- xit|e- is,|* et di- ~xit|e- ~is, et|di- xit e-|* * \- * *|
w: ||||||||
 A,2 B,2 A,4 | z2 C2 D2 B,2 | D8 | C6 A,2 | G,4 F,4- | F,4 z2 F2- | F2 F2 E2 E2 | F2 F2 D4 | %167
w: \- * is,|et di- xit|e|\- *|\- *|* De|* hoc quae- ri-|tis in- ter|
w: ||||* is:||||
 C4 z4 | z4 F4- | F2 F2 E2 E2 | F2 F2 D4 | C4 z2 G2- | G2 F2 E2 D2 | C2 D2 E4 | F4 G2 c2- | %175
w: vos,|de|* hoc quae- ri-|tis in- ter|vos, qui-|* a di \-|* * \-|* xi, Qui-|
w: ||||||||
 c2 B2 A4 | G8 | E2 F2 D4- | D2 E2 C4 | z2 F4 F2 | G2 F2 D2 D2 | E2 F2 G2 E2 | D4 E2 F2- | %183
w: * a di-||\- * \-|* \- ~xi:|Mo- di-|cum et non vi-|de- bi- tis *||
w: ||||||||
 F2 E2 F4- | F4 z2 F2- | F2 F2 G2 F2 | D2 E2 F2 F2 | G8 | A4 G3 F | E3 D C4- | C4 z4 | z2 F4 E2 | %192
w: * * ~me,|* mo|\- di- cum et|non vi- de- bi-|tis||* * me,||et i-|
w: |||||||||
 F2 D2 E2 F2 | D2 C2 D2 F2- | F2 E2 F4 | G4 F3 G | A4 G2 E2 | z2 F4 E2 | F6 D2 | _EDCB, C4 | A,8 |] %201
w: te- rum mo- di-|cum et vi- de|\- bi- tis|* me, *||et vi-|de- bi-|tis * * * *||
w: ||||||||~me.|
V:3
 z8 | z8 | z8 | z8 | z8 | z8 | F4 c4- | c2 c2 d2 d2 | e4 d4 | f3 e d4 | c2 c2 f2 f2 | d3 c B4 | %12
w: ||||||In il-|\- lo tem- po-|re di-|xit ~ Ie-|sus dis- ci- pu-|lis ~ su-|
 c8 | A4 c2 c2 | A2 F2 G3 A | B8 | A8 | z8 | z8 | z8 | z8 | z4 c4- | c2 c2 d2 c2 | A2 c2 B2 c2 | %24
w: \-is,|dis- ci- pu-|lis su * \-|\-|~is:|||||Mo-|* di- cum et|non vi- de- bi-|
 d2 f2 e2 d2- | dc c4 B2 | c2 e4 d2 | e2 f2 d4 | c8 | z2 c4 B2 | c2 A2 B2 c2 | F2 B2 A2 F2 | %32
w: \-tis * * *||me, non vi-|de- bi- tis|~me,|et i~-|\-te- rum mo- di-|cum et vi- de-|
 G2 A2 B2 A2 | G4 F2 f2- | f2 e2 f2 d2 | e2 f2 d2 c2 | d6 cB | c3 B A2 B2- | B2 A2 G4 | F8- | %40
w: bi- tis me, *|* * et|* vi- de- bi-|tis me * *|||||
 F4 z4 | z2 c4 d2 | e2 c2 g4 | e2 f2 d4 | c2 c4 =B2 | c2 f2 g4 | a2 f2 z2 B2 | A2 B2 G4 | %48
w: |qui- a|va- do ad|pa- trem me|\- * *|~um, qui- a|va- do ad|pa- trem me-|
 F2 F2 G4 | A2 F2 B4 | A2 B2 G4 | F8 | z2 F2 F2 F2 | c3 B A2 c2- | c2 B2 c4- | c4 z4 | z8 | c6 d2 | %58
w: \-um, ad pa-|trem me \-|\- * \-|~um.|Di- xe- runt|er \- * \-|* * go|||ex dis-|
 B2 c2 d4 | c2 f2 e2 d2- | dc c4 =B2 | c2 c4 d2 | B2 c2 d4 | c2 d4 cB | d2 c4 =B2 | c2 GA Bc d2- | %66
w: ci- pu- lis|su \- * \-|* \- * *|is, ex dis-|ci- pu- lis|su \- * \-|* \- *|\- * * * * *|
 dc B2 A4 | z4 c4 | B4 A2 d2 | c2 A2 c4 | GABc d2 B2 | A8 | c4 B4 | A2 d2 c2 A2 | c4 AGAB | %75
w: \- * * ~is:|Quid|est hoc, quod|di- xit no|\- * * * \- *|\-bis,|quid est|hoc, quod di- xit|no \- * * \-|
 c2 d2 c2 d2- | dc c4 =B2 | c4 z4 | z4 c4- | c2 c2 d2 c2 | A2 c2 B2 c2 | d2 f2 e2 d2- | dc c4 B2 | %83
w: * * \- ~||bis?|Mo-|* di- cum et|non vi- de *|* \- * *|\- * * bi-|
 c2 e4 d2 | e2 f2 d4 | c8 | z2 c4 A2 | c2 A2 B2 c2 | F2 G2 A2 F2 | G2 A2 B2 A2 | G4 F2 f2- | %91
w: tis, non vi-|de- bi- tis|~me,|et i-|te- rum mo- di-|\-cum et vi \--|de- bi- tis *|me * et|
 f2 e2 f2 d2 | e2 f2 d2 c2 | d6 cB | c3 B A2 B2- | B2 A2 G4 | F8- | F4 z4 | z2 c4 d2 | e2 c2 g4 | %100
w: * i- te- rum|mo- di- cum et|vi- * \-|\- * \- de|\- bi- tis|~me,||qui- a|va- do ad|
 e2 f2 d4 | c2 c4 B2 | c2 f2 g4 | a2 f2 z2 B2 | A2 B2 G4 | F2 F2 G4 | A2 F2 B4 | A2 B2 G4 | F8 | %109
w: pa- trem me|\- * \-|um, qui- a|va- do ad|pa- trem me-|um, ad pa-|trem me \-|\- * \-|~um.|
 z8 | z4 F4 | c2 c2 d4 | c2 c2 g2 g2 | a4 g2 a2- | a2 gf e2 f2 | d4 e2 f2 | e2 c2 f2 f2 | g4 f3 e | %118
w: |Di-|ce- bant er-|go, di- ce- bant|er \- *|\- * * \- *|\- * \-|\-go, di- ce- bant|er \- *|
 d4 c4 | F2 A2 G4 | z8 | z2 c2 d4 | e2 f4 e2 | f2 d2 e2 f2 | d4 c2 A2 | B4 A4 | z4 z2 c2 | %127
w: \- \-|* \- go:||Quid est|hoc, quod di-|xit no * *|\- * *|* bis,|quid|
 d4 e2 f2- | f2 e2 f2 d2 | e2 f2 d4 | c3 B A2 G2 | A2 B2 G4 | F8 | z8 | F4 c4- | c2 c2 d4 | %136
w: est hoc, quod|* di- xit no|\- * \-|\- \- * \-|\- * \-|~bis?||Ne- sci-|\- mus, quid|
 e2 e2 c4 | f3 e d2 d2 | c3 B A2 c2- | cBBA c2 c2- | c2 f4 a2 | g3 f e2 f2 | d2 d2 c4 | z2 c4 d2 | %144
w: lo- qui- tur,|quid * lo- qui-|tur, * * *|* * * * * ne-|* sci- mus,|quid * * *|lo- qui- tur.|Cog- no-|
 e2 c2 d2 e2 | f4 e2 f2 | d2 c4 =B2 | c4 z2 c2- | c2 d2 e2 c2 | d2 e2 f4 | e2 f2 d2 c2- | %151
w: vit au- tem Ie|\- * \-|* \- *|\-sus, qui-|* a vo- le-|bant e- um|in- ter- ro- ga-|
 c2 B2 c2 A2 | B2 c2 G4- | G4 z2 G2 | A2 F2 A4 | G2 c3 B c2 | A4 z2 c2 | d2 B2 d4 | c8 | %159
w: * \- * \-|\- * ~re,|* et|di- xit e|\- * \- *|~is, et|di- xit e-|~~\-is,|
 z2 G2 A2 F2 | A4 G4 | F8 | z2 f4 f2 | e2 e2 f4- | f4 c4 | d3 c B4 | c2 f4 f2 | e2 e2 f2 f2 | %168
w: et di- xit|e \-|~is:|De hoc|quae- ri- ~tis|~ in-|\-ter * *|vos, de hoc|quae- ri- tis in-|
 d4 c4 | d3 c B4 | c4 z2 f2- | f2 e2 d4 | c4 g3 f | e2 d3 c c2- | c2 B2 c4 | g4 c2 f2- | f2 e2 d4 | %177
w: ter *||vos, qui-|\- a di|\- * \-|* * \- *|* * ~xi,|qui- a di|\- * \-|
 c2 A2 B4 | A3 G A4- | A8 | z8 | z8 | z4 c4- | c2 c2 d2 c2 | A2 c2 B2 c2 | d2 f2 e2 d2- | %186
w: * \- *|\- * xi:||||Mo-|\- di- cum et|non vi- de- bi-|tis * * *|
 dc c4 =B2 | c2 e4 d2 | e2 f2 d4 | c8 | z2 c4 B2 | c2 A2 B2 c2 | F2 B2 A2 F2 | G2 A2 B2 A2 | %194
w: |me, non vi-|de- bi- tis|~me,|et i~-|te- rum mo- di-|cum et vi- de-|bi- tis me *|
 G4 F2 f2- | f2 e2 f2 d2 | e2 f2 d2 c2 | d6 cB | c3 B A2 B2- | B2 A2 G4 | F8 |] %201
w: * * et|* vi- de- bi-|tis * * *||||~~me.|
V:4
 z8 | z8 | z8 | z8 | z8 | z8 | z8 | z8 | C,4 F,4- | F,2 F,2 G,2 G,2 | A,4 F,4 | B,3 A, G,4 | %12
w: ||||||||In il-|\- lo tem- po-|re di-|xit ~ Ie-|
 F,4 C,4 | F,2 F,2 E,2 C,2 | D,4 C,4 | B,,8 | F,8 | z8 | z8 | z8 | %20
w: \-sus dis-|ci- pu- lis su|\- \-|\-|~is:||||
"^© Michael Wendel 2005\nThis edition may be freely duplicated, distributed, performed or recorded for non-profit performance or use.\n" z8 | %21
w: |
 z8 | z4 F,4- | F,2 F,2 G,2 F,2 | D,2 D,2 E,2 F,2 | G,2 E,2 D,4 | C,2 C2 C2 B,2 | A,2 F,2 G,4 | %28
w: |~~Mo-|* di- cum et|non vi- de- bi-|tis * *|me et non vi-|de- bi- tis|
 C,4 z2 F,2- | F,2 E,2 F,2 D,2 | E,2 F,2 D,2 C,2 | z8 | z4 z2 C2- | C2 B,2 C2 A,2 | %34
w: ~me, et|* i~- te- rum|mo- * di~- cum,||et|* i- te- rum|
 B,2 C2 F,2 B,2 | A,2 F,2 G,2 A,2 | B,3 A, G,4 | F,6 F,2 | _E,2 F,2 C,4 | F,8 | z2 F,4 G,2 | %41
w: mo- di~- cum et|vi \- de- bi-|\-tis * *|me, vi-|de- bi- tis|~me,|qui- a|
 A,4 F,2 F,2 | C2 A,2 G,2 B,2 | A,4 z4 | z2 F,4 G,2 | A,2 F,2 C4 | A,2 B,2 G,4 | F,2 B,,2 C,4 | %48
w: va- do ad|pa- trem me- *|um,|qui- a|va- do ad|pa- trem me-|um, qui- a|
 D,4 C,4 | F,4 D,2 _E,2 | C,2 B,,2 C,4 | F,4 z2 F,2 | F,2 F,2 C3 B, | A,G, A,2 F,3 E, | D,4 C,4 | %55
w: va- do|ad pa- trem|me \- *|um. Di-|xe- runt er \-|* \- * \- ~|\- go,|
 F,3 G, A,2 B,2 | G,2 C2 B,4 | A,4 z2 G,2- | G,2 A,2 F,2 G,2 | A,3 B, C2 G,2- | G,2 A,2 F,2 G,2 | %61
w: di \- * xe-|runt er \--|go ex|* dis- ci- pu-|\-lis su- is, ex|* dis- ci- pu-|
 A,4 z2 G,2- | G,2 A,2 F,2 G,2 | A,2 F,2 G,4 | F,3 E, D,4 | C,4 G,4 | z4 F,4- | F,4 E,4 | %68
w: lis, ex|* dis- ci- pu-|lis su \-|\- * \-|\-is: *|Quid|* est|
 D,2 G,2 F,2 D,2 | F,4 C,4 | z8 | F,8 | E,4 D,2 G,2 | F,2 D,2 F,4 | C,4 F,4- | F,2 E,D, E,2 F,2 | %76
w: hoc, quod di- xit|no- bis,||quid|est hoc, quod|di- xit no|\- *|* * * * ~~~~~|
 G,2 E,2 D,4 | C,4 F,4 | G,4 z4 | z4 F,4- | F,2 F,2 G,2 F,2 | D,2 D,2 E,2 F,2 | G,2 E,2 D,4 | %83
w: * \- *|\- ~-|bis?|~Mo-|* di- cum et|non vi- de- bi-|\-tis * *|
 C,2 C2 C2 B,2 | A,2 F,2 G,4 | C,4 z2 F,2- | F,2 E,2 F,2 D,2 | E,2 F,2 D,2 C,2 | z8 | z4 z2 C2- | %90
w: me, et non vi-|de- bi- tis|~me, et|* i~- te- rum|mo \- di~- cum,||et|
 C2 B,2 C2 A,2 | B,2 C2 F,2 B,2 | A,2 F,2 G,2 A,2 | B,3 A, G,4 | F,6 G,2 | _E,2 F,2 C,4 | F,8 | %97
w: * vi- de- bi-|tis * me, et|vi- de- bi- tis|me, * *|* vi-|de- bi- tis|~me,|
 z2 F,4 G,2 | A,4 F,2 F,2 | C2 A,2 G,2 B,2 | A,4 z4 | z2 F,4 G,2 | A,2 F,2 C4 | A,2 B,2 G,4 | %104
w: qui- a|va- do ad|pa- trem me \-|um,|qui- a|va- do ad|pa- trem me-|
 F,2 B,,2 C,4 | D,4 C,4 | F,4 D,2 _E,2 | C,2 B,,2 C,4 | F,8 | z8 | z8 | C,4 G,2 G,2 | A,4 G,4 | %113
w: \-um, qui- a|va- do|ad pa- trem|me \- *|~um.|||Di- ce- bant|er- go,|
 z2 F,2 C2 C2 | D4 C2 A,2 | B,4 A,2 F,2 | C2 C2 D4 | C4 F,4 | G,4 A,4- | A,2 C4 B,2 | %120
w: di- ce- bant|er \- *|\- go, di-|\-ce- bant er-|go: Quid|est ~hoc,|* quod di|
 C2 A,2 B,2 C2 | F,2 A,2 G,2 B,2 | A,2 F,2 G,4 | D,4 z2 F,2 | G,4 A,2 C2- | C2 B,2 C2 A,2 | %126
w: \- xit no \-|bis, quod di- xit|no * \-|bis, quid|est hoc, quod|* di \- xit|
 B,2 C2 F,2 A,2 | G,2 B,2 A,2 F,2 | G,4 D,4 | z2 F,2 G,4 | A,2 F,4 E,2 | F,2 D,2 C,4 | F,8- | F,8 | %134
w: no \- bis, quod|di- xit no- *|\- bis,|quod di-|xit no \-|\- * \-|~bis?||
 z4 C,4 | F,6 F,2 | G,2 A,4 A,2 | F,4 B,4 | A,3 G, F,2 E,2 | D,4 C,2 C,2 | F,6 F,2 | G,4 A,2 F,2 | %142
w: Ne-|sci- mus,|quid lo- qui-|\-tur, quid|lo \- * \-|qui- ~tur, ne-|sci- mus,|quid lo- qui-|
 G,4 z2 F,2 | G,2 A,4 F,2 | G,2 A,2 B,2 C2 | F,3 E, C,2 F,2 | G,2 E,2 D,4 | C,2 F,2 G,2 A,2- | %148
w: \-tur. Cog-|no- vit au-|tem Ie * \-|\- * \- *|\- * \-|\-sus, qui- a vo-|
 A,2 F,2 G,2 A,2 | B,2 C2 F,3 E, | C,2 F,2 G,2 E,2 | D,4 C,4 | z8 | C,4 D,2 B,,2 | D,4 C,4- | %155
w: * le- bant e-|* \- um *|* in- ter- ro-|ga- ~re,||et di- xit|e~- is,|
 C,4 F,4- | F,4 G,2 E,2 | G,4 F,4- | F,4 C,4 | D,2 B,,2 D,4 | C,4 z2 _E,2 | D,2 D,2 B,,4 | F,8 | %163
w: * et|* di- xit|e- is,|* et|di~- xit e-|~is, et|di- xit e-|~is:|
 z4 C4- | C2 C2 A,2 A,2 | B,2 B,2 G,4 | F,4 B,,4 | z4 B,4- | B,2 B,2 A,2 A,2 | B,2 B,2 G,4 | %170
w: ~De|* hoc quae- ri-|\-tis in- ter|~vos, *|de|* hoc quae- ri-|tis in- ter|
 F,4 z4 | z2 C4 B,2 | A,4 G,4 | A,2 F,2 E,2 C,2 | D,4 C,4 | z4 F,4 | C3 B, G,4 | A,2 F,2 G,3 F, | %178
w: vos,|qui- a|di \-|\- * * *|* ~xi,|qui-|a * *|di \- * \-|
 D,2 C,2 F,4- | F,8 | z8 | z8 | z8 | z4 F,4- | F,2 F,2 G,2 F,2 | D,2 D,2 E,2 F,2 | G,2 E,2 D,4 | %187
w: * \- xi:|||||Mo-|* di- cum et|non vi- de- bi-|tis * *|
 C,2 C2 C2 B,2 | A,2 F,2 G,4 | C,4 z2 F,2- | F,2 E,2 F,2 D,2 | E,2 F,2 D,2 C,2 | z8 | z4 z2 C2- | %194
w: me, et~ non vi-|de- bi- tis|~me, et|* i~- te- rum|mo \- di- cum,||et|
 C2 B,2 C2 A,2 | B,2 C2 F,2 B,2 | A,2 F,2 G,2 A,2 | B,3 A, G,4 | F,6 F,2 | _E,2 F,2 C,4 | F,8 |] %201
w: * i- te- rum|mo- di- cum, et|vi \- de- bi-|tis * *|~me, vi-|de- bi- tis|~~me.|

